projects/front-end-library/src/lib/components/logo/svg/logo-videotron-business-large-en.svg

<svg width="256" height="72" viewBox="0 0 256 72" fill="none" xmlns="http://www.w3.org/2000/svg">
    <path d="M72 0H0V72H72V0Z" class="fill-brand"/>
    <path d="M19.4496 18.4778L54.2802 35.7978L19.4077 53.5199L41.8377 35.8512L19.4496 18.4778Z" fill="#050504"/>
    <path d="M96.6912 30.0583L92.892 18.1067H90L95.0877 33.5424H98.2592L103.37 18.1067H100.508L96.6912 30.0583Z" fill="currentColor"/>
    <path d="M139.039 30.9605H132.038V27.1765H138.544V24.5844H132.038V20.6886H139.039V18.1067H129.326V33.5424H139.039V30.9605Z" fill="currentColor"/>
    <path d="M122.765 33.0799C123.497 32.5869 124.143 31.9775 124.678 31.2756C124.953 30.8343 125.088 30.3208 125.067 29.8017V21.9059C125.093 21.3833 124.95 20.8663 124.658 20.432C124.346 19.9898 123.367 18.8818 122.795 18.5514C122.318 18.2632 121.772 18.1095 121.215 18.1067H114.147V33.545H121.215C121.762 33.5209 122.295 33.3611 122.765 33.0799ZM116.859 30.9605V20.6886H120.958C121.037 20.6832 121.117 20.6909 121.194 20.7115C121.658 20.9978 122.049 21.3885 122.335 21.8525C122.349 21.8945 122.355 21.9382 122.356 21.9821V29.7508C122.356 30.0507 121.581 30.7292 121.215 30.9325C121.159 30.9482 121.102 30.9551 121.044 30.9529L116.859 30.9605Z" fill="currentColor"/>
    <path d="M109.395 18.1067H106.684V33.5526H109.395V18.1067Z" fill="currentColor"/>
    <path d="M210.711 18.1067V28.4878L205.407 18.1067H202.492V33.5424H205.201V23.2934L210.548 33.5424H213.42V18.1067H210.711Z" fill="currentColor"/>
    <path d="M183.507 33.5453L180.439 27.2531C180.68 27.1651 180.905 27.0408 181.108 26.8846C181.623 26.4837 182.092 26.026 182.505 25.52C182.816 25.0518 182.978 24.5009 182.97 23.9393V21.6699C182.973 21.1105 182.811 20.5626 182.505 20.0943C182.095 19.5695 181.626 19.0937 181.108 18.6763C180.568 18.309 179.931 18.1101 179.278 18.1045H172.02V33.5453H174.729V27.464H177.697L180.569 33.5631L183.507 33.5453ZM180.259 23.9189C180.257 23.9567 180.245 23.9933 180.226 24.0257C180.023 24.3789 179.507 24.8745 179.278 24.8745H174.729V20.689H179.408C179.662 20.7118 180.076 21.2277 180.226 21.5174C180.249 21.572 180.26 21.6309 180.259 21.6902V23.9189Z" fill="currentColor"/>
    <path d="M196.119 18.4651C195.635 18.1739 195.083 18.0137 194.518 18H190.584C190.019 18.0119 189.467 18.1723 188.983 18.4651C188.444 18.7751 187.41 19.8831 187.1 20.3253C186.817 20.7636 186.674 21.2777 186.691 21.7992V29.8881C186.676 30.4054 186.819 30.9148 187.1 31.3494C187.41 31.7915 188.444 32.9097 188.983 33.2096C189.466 33.5048 190.018 33.6678 190.584 33.6823H194.51C195.076 33.6659 195.627 33.5031 196.111 33.2096C196.65 32.9097 197.661 31.7915 197.994 31.3494C198.275 30.9147 198.419 30.4055 198.406 29.8881V21.7992C198.418 21.2765 198.271 20.7625 197.984 20.3253C197.661 19.8831 196.65 18.7751 196.119 18.4651ZM195.712 29.8551C195.71 29.8929 195.699 29.9296 195.679 29.9618C195.377 30.3994 194.994 30.7754 194.551 31.0698C194.509 31.083 194.465 31.0899 194.421 31.0901H190.691C190.647 31.092 190.603 31.0851 190.561 31.0698C190.112 30.7789 189.726 30.4024 189.423 29.9618C189.407 29.9283 189.4 29.8919 189.4 29.8551V21.8729C189.4 21.8287 189.408 21.785 189.423 21.7433C189.726 21.2974 190.112 20.9142 190.561 20.615C190.584 20.5845 190.691 20.5845 190.691 20.5845H194.414C194.459 20.583 194.504 20.5935 194.543 20.615C194.986 20.9178 195.369 21.3004 195.672 21.7433C195.705 21.7763 195.705 21.8729 195.705 21.8729L195.712 29.8551Z" fill="currentColor"/>
    <path d="M168.35 18.1067H157.27V20.6886H161.456V33.5551H164.165V20.6886H168.35V18.1067Z" fill="currentColor"/>
    <path d="M154.358 31.3494C154.633 30.9121 154.774 30.4044 154.765 29.8881V21.7992C154.776 21.2787 154.635 20.7663 154.358 20.3253C154.023 19.8831 153.011 18.7751 152.462 18.4651C151.985 18.1781 151.441 18.018 150.884 18H146.945C146.379 18.0108 145.826 18.1713 145.342 18.4651C144.795 18.7751 143.761 19.8831 143.461 20.3253C143.174 20.7625 143.027 21.2765 143.039 21.7992V29.8881C143.029 30.4066 143.177 30.9159 143.461 31.3494C143.761 31.7915 144.795 32.9097 145.342 33.2096C145.825 33.5059 146.378 33.669 146.945 33.6823H150.884C151.446 33.6637 151.994 33.501 152.475 33.2096C153.011 32.9097 154.023 31.7839 154.358 31.3494ZM152.053 29.8551C152.052 29.8915 152.045 29.9276 152.033 29.9618C151.724 30.401 151.334 30.7771 150.884 31.0698C150.842 31.0829 150.799 31.0897 150.755 31.0901H147.042C146.999 31.0911 146.955 31.0842 146.915 31.0698C146.467 30.7792 146.082 30.4026 145.781 29.9618C145.761 29.93 145.75 29.8929 145.751 29.8551V21.8729C145.752 21.828 145.762 21.7838 145.781 21.7433C146.082 21.2971 146.467 20.9139 146.915 20.615C146.945 20.5845 147.042 20.5845 147.042 20.5845H150.765C150.81 20.583 150.855 20.5935 150.894 20.615C151.341 20.9168 151.727 21.2995 152.033 21.7433C152.047 21.785 152.054 21.8288 152.053 21.8729V29.8551Z" fill="currentColor"/>
    <path d="M99.9263 38.8715C99.4684 38.5449 98.9208 38.3674 98.3583 38.3633H91.3723V53.8829H98.3583C98.9195 53.883 99.4671 53.7099 99.9263 53.3873C100.405 52.9754 100.839 52.5147 101.222 52.0125C101.477 51.616 101.604 51.1516 101.588 50.6809V48.4801C101.604 47.9926 101.477 47.5111 101.222 47.0951C100.924 46.7147 100.595 46.3594 100.239 46.0329C100.595 45.7063 100.924 45.3511 101.222 44.9706C101.477 44.5546 101.604 44.0731 101.588 43.5856V41.6034C101.604 41.1167 101.477 40.636 101.222 40.221C100.838 39.7273 100.404 39.2751 99.9263 38.8715ZM92.9428 46.7902H98.3659C98.5017 46.7851 98.6369 46.8094 98.7624 46.8613C99.2528 47.1779 99.662 47.6053 99.9568 48.1091C100.01 48.2342 100.036 48.3696 100.03 48.5055V50.6173C100.035 50.7522 100.011 50.8866 99.9593 51.0112C99.6634 51.5159 99.2524 51.9434 98.7598 52.259C98.6319 52.3301 98.4868 52.3644 98.3405 52.3581H92.9428V46.7902ZM98.7624 45.2044C98.639 45.2658 98.5037 45.2996 98.3659 45.3035H92.9428V39.8626H98.3405C98.4875 39.8568 98.6334 39.891 98.7624 39.9617C99.2523 40.2886 99.6609 40.7232 99.9568 41.2324C100.01 41.3575 100.036 41.4929 100.03 41.6288V43.5348C100.035 43.6787 100.011 43.8221 99.9593 43.9566C99.6607 44.4609 99.2482 44.8882 98.7548 45.2044H98.7624Z" fill="currentColor"/>
    <path d="M114.079 50.488C114.072 50.6003 114.038 50.7093 113.98 50.8057C113.581 51.4484 113.049 51.9979 112.419 52.4168C112.322 52.4682 112.214 52.4928 112.104 52.488H108.912C108.801 52.4923 108.69 52.4669 108.592 52.4143C107.949 51.9974 107.402 51.4492 106.986 50.8057C106.928 50.7093 106.894 50.6003 106.887 50.488V38.3508H105.324V50.549C105.315 50.9915 105.433 51.4273 105.665 51.8044C106.164 52.4779 106.757 53.0769 107.426 53.5833C107.835 53.835 108.302 53.9784 108.783 54.0001H112.234C112.706 53.9775 113.165 53.834 113.565 53.5833C114.234 53.0763 114.828 52.4774 115.329 51.8044C115.552 51.4247 115.66 50.9888 115.642 50.549V38.3508H114.079V50.488Z" fill="currentColor"/>
    <path d="M128.742 46.3327L121.713 44.3759C121.485 44.2903 121.29 44.1364 121.153 43.9353C121.017 43.7341 120.946 43.4957 120.95 43.2526V41.6287C120.957 41.5171 120.991 41.4088 121.049 41.3136C121.457 40.7047 121.999 40.197 122.633 39.8295C122.73 39.7787 122.838 39.7542 122.948 39.7584H126.579C126.69 39.7536 126.8 39.7791 126.897 39.8321C127.534 40.2436 128.067 40.7956 128.457 41.4458C128.527 41.5487 128.586 41.6586 128.633 41.7736L128.645 41.8015L130.208 41.3441L130.193 41.306C130.028 40.9484 129.828 40.608 129.596 40.2895C129.296 39.8854 128.579 39.0188 127.99 38.658C127.589 38.4076 127.13 38.2641 126.658 38.2412H122.821C122.348 38.2638 121.89 38.4073 121.489 38.658C120.813 39.1753 120.214 39.7863 119.71 40.4725C119.488 40.8581 119.379 41.2984 119.395 41.7431V43.339C119.395 44.5156 120.063 45.5245 121.019 45.7939L128.073 47.7253C128.566 47.8549 128.871 48.4368 128.871 48.9019V50.5486C128.873 50.6587 128.849 50.7676 128.8 50.8663C128.382 51.487 127.832 52.0076 127.189 52.3911C127.101 52.4417 127.001 52.4664 126.899 52.4622H122.785C122.666 52.4667 122.547 52.4414 122.439 52.3885C121.811 51.971 121.28 51.4222 120.884 50.7799C120.81 50.6911 120.751 50.5906 120.709 50.4826V50.4546L119.171 50.8841L119.187 50.9222C119.344 51.2788 119.535 51.6193 119.758 51.9387C120.056 52.3428 120.775 53.2094 121.365 53.5702C121.774 53.8219 122.241 53.9654 122.722 53.987H126.996C127.468 53.9649 127.927 53.8213 128.328 53.5702C129.002 53.0651 129.601 52.4661 130.107 51.7913C130.328 51.4056 130.438 50.9654 130.422 50.5207V48.7697C130.417 47.6109 129.728 46.6122 128.742 46.3327Z" fill="currentColor"/>
    <path d="M135.565 38.3508H134V53.873H135.565V38.3508Z" fill="currentColor"/>
    <path d="M148.137 51.5477L141.535 38.3686L141.525 38.3508H139.484V53.8704H140.996V40.7981L147.652 53.8527L147.662 53.8704H149.649V38.3508H148.137V51.5477Z" fill="currentColor"/>
    <path d="M153.591 53.8704H162.518V52.3584H155.154V46.8667H162.132V45.3546H155.154V39.8629H162.518V38.3508H153.591V53.8704Z" fill="currentColor"/>
    <path d="M175.308 46.3327L168.279 44.3759C168.052 44.2901 167.857 44.1361 167.72 43.935C167.584 43.7339 167.513 43.4956 167.517 43.2527V41.6288C167.523 41.5172 167.557 41.4089 167.616 41.3137C168.024 40.704 168.566 40.1963 169.202 39.8296C169.299 39.7782 169.407 39.7536 169.517 39.7584H173.146C173.257 39.7537 173.368 39.7792 173.466 39.8321C174.102 40.2427 174.635 40.7929 175.026 41.4407C175.096 41.5437 175.155 41.6535 175.202 41.7686L175.214 41.7965L176.739 41.3492H176.777L176.762 41.3111C176.596 40.9541 176.396 40.6138 176.165 40.2946C175.867 39.8905 175.148 39.024 174.559 38.6631C174.158 38.4124 173.699 38.2689 173.227 38.2463H169.39C168.918 38.2689 168.459 38.4124 168.058 38.6631C167.383 39.1811 166.784 39.792 166.279 40.4776C166.058 40.8635 165.95 41.3038 165.967 41.7482V43.3441C165.967 44.5208 166.632 45.5297 167.588 45.799L174.645 47.7304C175.136 47.86 175.441 48.442 175.441 48.907V50.5538C175.442 50.6638 175.418 50.7727 175.369 50.8714C174.952 51.4924 174.401 52.0132 173.758 52.3962C173.67 52.4471 173.57 52.4718 173.469 52.4673H169.352C169.232 52.4713 169.114 52.446 169.006 52.3937C168.378 51.9754 167.848 51.4268 167.451 50.785C167.378 50.6955 167.32 50.5952 167.278 50.4877V50.4597L165.74 50.8892L165.758 50.9273C165.915 51.2836 166.106 51.6239 166.328 51.9438C166.627 52.3479 167.344 53.2145 167.934 53.5753C168.343 53.8271 168.81 53.9705 169.291 53.9921H173.568C174.04 53.9692 174.498 53.8257 174.899 53.5753C175.574 53.0697 176.172 52.4707 176.678 51.7965C176.9 51.4108 177.009 50.9705 176.993 50.5258V48.7749C176.983 47.611 176.297 46.6122 175.308 46.3327Z" fill="currentColor"/>
    <path d="M189.908 46.3327L182.876 44.3759C182.649 44.2904 182.453 44.1365 182.317 43.9353C182.18 43.7342 182.109 43.4957 182.114 43.2527V41.6288C182.119 41.5174 182.153 41.4091 182.21 41.3137C182.619 40.7046 183.161 40.197 183.796 39.8296C183.893 39.7785 184.002 39.754 184.111 39.7584H187.733C187.843 39.7541 187.953 39.7795 188.05 39.8321C188.687 40.2426 189.221 40.7927 189.613 41.4407C189.683 41.5437 189.742 41.6535 189.789 41.7686V41.7965L191.313 41.3492H191.351L191.336 41.3111C191.171 40.9536 190.971 40.6132 190.739 40.2946C190.442 39.8905 189.722 39.024 189.133 38.6631C188.732 38.4124 188.274 38.2689 187.801 38.2463H183.964C183.498 38.2722 183.046 38.4156 182.65 38.6631C181.974 39.181 181.376 39.7919 180.871 40.4776C180.649 40.8633 180.54 41.3035 180.556 41.7482V43.3441C180.556 44.5208 181.222 45.5297 182.177 45.799L189.235 47.7304C189.728 47.86 190.032 48.442 190.032 48.907V50.5538C190.035 50.6641 190.009 50.7733 189.959 50.8714C189.541 51.4924 188.991 52.0132 188.348 52.3962C188.26 52.4471 188.159 52.4718 188.058 52.4673H183.949C183.83 52.4716 183.712 52.4463 183.606 52.3937C182.976 51.9763 182.445 51.4275 182.048 50.785C181.976 50.6947 181.918 50.5946 181.875 50.4877V50.4597L180.35 50.8892L180.365 50.9273C180.523 51.283 180.714 51.6233 180.935 51.9438C181.235 52.3479 181.951 53.2145 182.541 53.5753C182.951 53.8271 183.419 53.9705 183.9 53.9921H188.175C188.647 53.9695 189.106 53.826 189.506 53.5753C190.181 53.0702 190.78 52.4712 191.285 51.7965C191.506 51.4105 191.615 50.9703 191.598 50.5258V48.7749C191.58 47.611 190.894 46.6122 189.908 46.3327Z" fill="currentColor"/>
</svg>

<svg width="256" height="72" fill="none" xmlns="http://www.w3.org/2000/svg"><path d="M72 0H0v72h72V0Z" class="fill-brand"/><path d="m19.45 18.478 34.83 17.32L19.408 53.52l22.43-17.669L19.45 18.478Z" fill="#050504"/><path d="m96.691 30.058-3.799-11.951H90l5.088 15.435h3.171l5.111-15.435h-2.862l-3.817 11.951ZM139.039 30.96h-7.001v-3.784h6.506v-2.592h-6.506V20.69h7.001v-2.582h-9.713v15.435h9.713V30.96ZM122.765 33.08a8.081 8.081 0 0 0 1.913-1.804c.275-.442.41-.955.389-1.474v-7.896a2.425 2.425 0 0 0-.409-1.474c-.312-.442-1.291-1.55-1.863-1.88a3.085 3.085 0 0 0-1.58-.445h-7.068v15.438h7.068a3.303 3.303 0 0 0 1.55-.465Zm-5.906-2.12V20.69h4.099a.724.724 0 0 1 .236.023c.464.286.855.677 1.141 1.14a.44.44 0 0 1 .021.13v7.769c0 .3-.775.978-1.141 1.181a.552.552 0 0 1-.171.02l-4.185.008ZM109.395 18.107h-2.711v15.446h2.711V18.107ZM210.711 18.107v10.38l-5.304-10.38h-2.915v15.435h2.709V23.293l5.347 10.25h2.872V18.106h-2.709ZM183.507 33.545l-3.068-6.292c.241-.088.466-.212.669-.368.515-.401.984-.859 1.397-1.365.311-.468.473-1.02.465-1.58v-2.27a2.853 2.853 0 0 0-.465-1.576 8.7 8.7 0 0 0-1.397-1.418 3.305 3.305 0 0 0-1.83-.571h-7.258v15.44h2.709v-6.081h2.968l2.872 6.1 2.938-.019Zm-3.248-9.626a.237.237 0 0 1-.033.107c-.203.353-.719.849-.948.849h-4.549v-4.186h4.679c.254.023.668.539.818.828a.426.426 0 0 1 .033.173v2.229ZM196.119 18.465a3.26 3.26 0 0 0-1.601-.465h-3.934a3.224 3.224 0 0 0-1.601.465c-.539.31-1.573 1.418-1.883 1.86a2.563 2.563 0 0 0-.409 1.474v8.09a2.555 2.555 0 0 0 .409 1.46c.31.442 1.344 1.56 1.883 1.86a3.228 3.228 0 0 0 1.601.473h3.926a3.269 3.269 0 0 0 1.601-.472c.539-.3 1.55-1.419 1.883-1.86.281-.435.425-.945.412-1.462V21.8a2.578 2.578 0 0 0-.422-1.474c-.323-.442-1.334-1.55-1.865-1.86Zm-.407 11.39a.224.224 0 0 1-.033.107 4.184 4.184 0 0 1-1.128 1.108.441.441 0 0 1-.13.02h-3.73a.337.337 0 0 1-.13-.02 4.06 4.06 0 0 1-1.138-1.108.246.246 0 0 1-.023-.107v-7.982c0-.044.008-.088.023-.13.303-.446.689-.829 1.138-1.128.023-.03.13-.03.13-.03h3.723a.25.25 0 0 1 .129.03c.443.303.826.685 1.129 1.128.033.033.033.13.033.13l.007 7.982ZM168.35 18.107h-11.08v2.582h4.186v12.866h2.709V20.69h4.185v-2.582ZM154.358 31.35c.275-.438.416-.946.407-1.462V21.8a2.665 2.665 0 0 0-.407-1.474c-.335-.442-1.347-1.55-1.896-1.86a3.267 3.267 0 0 0-1.578-.465h-3.939a3.207 3.207 0 0 0-1.603.465c-.547.31-1.581 1.418-1.881 1.86a2.578 2.578 0 0 0-.422 1.474v8.09c-.01.518.138 1.027.422 1.46.3.442 1.334 1.56 1.881 1.86a3.21 3.21 0 0 0 1.603.473h3.939a3.28 3.28 0 0 0 1.591-.472c.536-.3 1.548-1.426 1.883-1.86Zm-2.305-1.495a.352.352 0 0 1-.02.107c-.309.439-.699.815-1.149 1.108a.445.445 0 0 1-.129.02h-3.713a.355.355 0 0 1-.127-.02 4.026 4.026 0 0 1-1.134-1.108.192.192 0 0 1-.03-.107v-7.982a.322.322 0 0 1 .03-.13c.301-.446.686-.83 1.134-1.128.03-.03.127-.03.127-.03h3.723a.25.25 0 0 1 .129.03 4.32 4.32 0 0 1 1.139 1.128.38.38 0 0 1 .02.13v7.982ZM99.926 38.871a2.735 2.735 0 0 0-1.568-.508h-6.986v15.52h6.986c.561 0 1.11-.173 1.568-.496a9.066 9.066 0 0 0 1.296-1.374c.255-.397.382-.861.366-1.332v-2.2a2.493 2.493 0 0 0-.366-1.386 8.833 8.833 0 0 0-.983-1.062c.356-.327.685-.682.983-1.062.255-.416.382-.898.366-1.385v-1.983a2.484 2.484 0 0 0-.366-1.382 9 9 0 0 0-1.296-1.35Zm-6.983 7.92h5.423a.945.945 0 0 1 .396.07c.49.317.9.744 1.195 1.248.053.125.079.26.073.396v2.112a.937.937 0 0 1-.07.394 3.711 3.711 0 0 1-1.2 1.248.793.793 0 0 1-.42.1h-5.397V46.79Zm5.82-1.587a.95.95 0 0 1-.397.1h-5.423v-5.441h5.398a.811.811 0 0 1 .421.099c.49.327.899.761 1.195 1.27.053.126.079.26.073.397v1.906c.005.144-.019.287-.07.422a3.753 3.753 0 0 1-1.205 1.247h.007ZM114.079 50.488a.701.701 0 0 1-.099.318 5.276 5.276 0 0 1-1.561 1.61.614.614 0 0 1-.315.072h-3.192a.627.627 0 0 1-.32-.074 5.43 5.43 0 0 1-1.606-1.608.701.701 0 0 1-.099-.318V38.351h-1.563v12.198c-.009.443.109.878.341 1.255a8.806 8.806 0 0 0 1.761 1.78c.409.251.876.394 1.357.416h3.451a2.756 2.756 0 0 0 1.331-.417 8.902 8.902 0 0 0 1.764-1.779c.223-.38.331-.815.313-1.255V38.351h-1.563v12.137ZM128.742 46.333l-7.029-1.957a1.179 1.179 0 0 1-.763-1.123v-1.624a.689.689 0 0 1 .099-.315 4.811 4.811 0 0 1 1.584-1.484.626.626 0 0 1 .315-.072h3.631a.608.608 0 0 1 .318.074c.637.412 1.17.964 1.56 1.614.07.103.129.213.176.328l.012.027 1.563-.457-.015-.038a5.986 5.986 0 0 0-.597-1.017c-.3-.404-1.017-1.27-1.606-1.631a2.77 2.77 0 0 0-1.332-.417h-3.837a2.76 2.76 0 0 0-1.332.417 8.974 8.974 0 0 0-1.779 1.814 2.375 2.375 0 0 0-.315 1.271v1.596c0 1.177.668 2.186 1.624 2.455l7.054 1.931c.493.13.798.712.798 1.177v1.647a.686.686 0 0 1-.071.317 5.078 5.078 0 0 1-1.611 1.525.536.536 0 0 1-.29.071h-4.114a.725.725 0 0 1-.346-.074 5.226 5.226 0 0 1-1.555-1.608 1.07 1.07 0 0 1-.175-.297v-.028l-1.538.43.016.037c.157.357.348.697.571 1.017.298.404 1.017 1.27 1.607 1.631.409.252.876.395 1.357.417h4.274a2.753 2.753 0 0 0 1.332-.417 8.88 8.88 0 0 0 1.779-1.779c.221-.385.331-.826.315-1.27V48.77c-.005-1.16-.694-2.158-1.68-2.437ZM135.565 38.35H134v15.523h1.565V38.351ZM148.137 51.548l-6.602-13.18-.01-.017h-2.041v15.52h1.512V40.797l6.656 13.055.01.017h1.987V38.35h-1.512v13.198ZM153.591 53.87h8.927v-1.512h-7.364v-5.491h6.978v-1.512h-6.978v-5.492h7.364V38.35h-8.927v15.52ZM175.308 46.333l-7.029-1.957a1.183 1.183 0 0 1-.762-1.123v-1.624a.666.666 0 0 1 .099-.315c.408-.61.95-1.118 1.586-1.484a.614.614 0 0 1 .315-.072h3.629a.62.62 0 0 1 .32.074c.636.41 1.169.96 1.56 1.609.07.103.129.212.176.328l.012.028 1.525-.448h.038l-.015-.038a6.175 6.175 0 0 0-.597-1.016c-.298-.404-1.017-1.271-1.606-1.632a2.763 2.763 0 0 0-1.332-.417h-3.837a2.763 2.763 0 0 0-1.332.417 9.061 9.061 0 0 0-1.779 1.815 2.374 2.374 0 0 0-.312 1.27v1.596c0 1.177.665 2.186 1.621 2.455l7.057 1.931c.491.13.796.712.796 1.177v1.647a.7.7 0 0 1-.072.317 5.059 5.059 0 0 1-1.611 1.525.53.53 0 0 1-.289.071h-4.117a.735.735 0 0 1-.346-.073 5.252 5.252 0 0 1-1.555-1.609 1.107 1.107 0 0 1-.173-.297v-.028l-1.538.43.018.037c.157.357.348.697.57 1.017.299.404 1.016 1.27 1.606 1.631a2.83 2.83 0 0 0 1.357.417h4.277c.472-.023.93-.166 1.331-.417a8.882 8.882 0 0 0 1.779-1.779c.222-.385.331-.825.315-1.27v-1.751c-.01-1.164-.696-2.163-1.685-2.442ZM189.908 46.333l-7.032-1.957a1.175 1.175 0 0 1-.762-1.123v-1.624a.675.675 0 0 1 .096-.315 4.815 4.815 0 0 1 1.586-1.484.623.623 0 0 1 .315-.072h3.622c.11-.004.22.021.317.074.637.41 1.171.96 1.563 1.609.07.103.129.212.176.328v.028l1.524-.448h.038l-.015-.038a5.994 5.994 0 0 0-.597-1.016c-.297-.404-1.017-1.271-1.606-1.632a2.76 2.76 0 0 0-1.332-.417h-3.837a2.77 2.77 0 0 0-1.314.417 9.03 9.03 0 0 0-1.779 1.815 2.376 2.376 0 0 0-.315 1.27v1.596c0 1.177.666 2.186 1.621 2.455l7.058 1.931c.493.13.797.712.797 1.177v1.647a.661.661 0 0 1-.073.317 5.07 5.07 0 0 1-1.611 1.525.533.533 0 0 1-.29.071h-4.109a.714.714 0 0 1-.343-.073 5.22 5.22 0 0 1-1.558-1.609c-.072-.09-.13-.19-.173-.297v-.028l-1.525.43.015.037c.158.356.349.696.57 1.017.3.404 1.016 1.27 1.606 1.631.41.252.878.395 1.359.417h4.275a2.756 2.756 0 0 0 1.331-.417 8.83 8.83 0 0 0 1.779-1.779c.221-.386.33-.826.313-1.27v-1.751c-.018-1.164-.704-2.163-1.69-2.442Z" fill="currentColor"/></svg>
